X:1
T:Title
%%score { ( 1 3 4 ) | ( 2 5 ) }
L:1/8
M:4/4
K:Eb
V:1 treble nm="Grand Piano"
V:3 treble 
V:4 treble 
V:2 bass 
V:5 bass 
V:1
 z4 z2[Q:1/4=100] G2 | G3 G _G2 =G2 | A3 G B2 c2 | [Dc]3 [A,DF] [B,DG]2 [CDA]2 |[M:3/4] [B,EG]6 | %5
[M:1/4] [B,EG]2 |[M:4/4] [B,=EG]3 [_DEB] [CEA]2 G2 | G3 F A2 [Ae]2 | e2 d2 c3 =B |[M:3/4] B6 | %10
[M:1/4] G2 |[M:4/4] A3 F B2 =B2 | c3 [DB] [DF]2 [_DG]2 | z4 [GB]4 |[M:3/4] [=B,FA]4 [EG]2 | %15
[M:1/4] [B,FB]2 |[M:4/4] [Ee]3 d c2 e2 | B4 z4 | [CF]2 [A,CA]2 [F,B,D]3 [A,B,F] | %19
[M:7/8] B,- B,3- [B,E]2- [B,E-]/E/ |] %20
V:2
 z4 z2 [E,B,E]2 | [E,B,E]3 [E,B,E] [E,=A,E]2 [E,B,E]2 | [E,CE]3 [E,B,E] [E,G,E]2 [E,G,E]2 | %3
 [B,,A,]3 B,, B,,2 B,,2 |[M:3/4] E,6 |[M:1/4] E,2 |[M:4/4] C,3 C, C,2 [=E,B,C]2 | %7
 [F,B,C]3 [F,A,C] [F,CF]2 [F,C]2 | [B,CA]2 [B,DA]2 [B,EA]3 [B,EA] |[M:3/4] [B,DA]6 | %10
[M:1/4][K:bass] [E,B,E]2 |[M:4/4] [F,B,D]3 [A,B,D] [G,B,E]2 [_G,=A,E]2 | %12
 [F,A,D]3 [B,,A,] [B,,A,]2 [B,,=E,]2 | [B,,F,]2 [B,,B,]2 [C,B,]2 z F |[M:3/4] z2 z2 B,2 | %15
[M:1/4] D,2 |[M:4/4] [C,G,]3 [G,B,E] [A,E]2 [G,B,E]2 | [F,CE]2 [B,,B,]2 E,2 C,2 | %18
 A,,2 F,,2 B,,3 B,, |[M:7/8] z z z2 G,3 |] %20
V:3
 x8 | x8 | x8 | x8 |[M:3/4] x6 |[M:1/4] x2 |[M:4/4] x8 | x8 | x8 |[M:3/4] x6 |[M:1/4] x2 | %11
[M:4/4] x8 | x8 | [DA]2 [Ac]2 z2 z A |[M:3/4] x6 |[M:1/4] x2 |[M:4/4] x8 | z2 z A [B,EG]2 [CEG]2 | %18
 x8 |[M:7/8] [A,F]- [A,F]3 z z2 |] %20
V:4
 x8 | x8 | x8 | x8 |[M:3/4] x6 |[M:1/4] x2 |[M:4/4] x8 | x8 | x8 |[M:3/4] x6 |[M:1/4] x2 | %11
[M:4/4] x8 | x8 | z4 z2 B,2 |[M:3/4] x6 |[M:1/4] x2 |[M:4/4] x8 | z2 D2 z4 | x8 |[M:7/8] x7 |] %20
V:5
 x8 | x8 | x8 | x8 |[M:3/4] x6 |[M:1/4] x2 |[M:4/4] x8 | x8 | x8 |[M:3/4] x6 |[M:1/4][K:bass] x2 | %11
[M:4/4] x8 | x8 | z4 z2 D,2 |[M:3/4] E,6 |[M:1/4] x2 |[M:4/4] x8 | x8 | x8 | %19
[M:7/8] E,-E,-E,- E,- E,2- E,/ z/ |] %20

